packages/kaspersky-hexa-ui-icons/src/iconsSVGs/28x20/FlagCv.svg

<svg width="28" height="20" viewBox="0 0 28 20" fill="none" xmlns="http://www.w3.org/2000/svg">
<g clip-path="url(#clip0_5138_628)">
<rect width="28" height="20" rx="2" fill="white"/>
<mask id="mask0_5138_628" style="mask-type:luminance" maskUnits="userSpaceOnUse" x="0" y="0" width="28" height="20">
<rect width="28" height="20" rx="2" fill="white"/>
</mask>
<g mask="url(#mask0_5138_628)">
<path fill-rule="evenodd" clip-rule="evenodd" d="M0 10.6667H28V0H0V10.6667Z" fill="#0C49AE"/>
<path fill-rule="evenodd" clip-rule="evenodd" d="M0 20H28V14.6667H0V20Z" fill="#0C49AE"/>
<path fill-rule="evenodd" clip-rule="evenodd" d="M0 14.6667H28V10.6667H0V14.6667Z" fill="white"/>
<path fill-rule="evenodd" clip-rule="evenodd" d="M0 13.3333H28V12H0V13.3333Z" fill="#CD232E"/>
<path d="M10.9948 15.984C11.3609 15.9487 11.6865 16.2166 11.7223 16.5827C11.758 16.9491 11.49 17.2754 11.1237 17.3112C10.9732 17.3258 10.8206 17.3336 10.6667 17.3336C10.5127 17.3336 10.3601 17.3258 10.2096 17.3112C9.84329 17.2754 9.57534 16.9491 9.611 16.5827C9.64686 16.2166 9.97242 15.9487 10.3385 15.984C10.4462 15.9945 10.5559 15.9997 10.6667 15.9997C10.7774 15.9997 10.8872 15.9945 10.9948 15.984ZM7.15104 14.6891C7.43548 14.4554 7.85576 14.4965 8.08952 14.7809C8.22827 14.9498 8.38353 15.1051 8.55241 15.2438C8.83678 15.4776 8.87791 15.8978 8.6442 16.1823C8.41045 16.4666 7.99017 16.5078 7.70573 16.2741C7.46975 16.0802 7.25312 15.8636 7.05924 15.6276C6.82555 15.3432 6.86667 14.9229 7.15104 14.6891ZM13.2438 14.7809C13.4776 14.4965 13.8978 14.4554 14.1823 14.6891C14.4667 14.9229 14.5078 15.3432 14.2741 15.6276C14.0802 15.8636 13.8636 16.0802 13.6276 16.2741C13.3432 16.5078 12.9229 16.4666 12.6891 16.1823C12.4554 15.8978 12.4966 15.4776 12.7809 15.2438C12.9498 15.1051 13.1051 14.9498 13.2438 14.7809ZM5.99967 12.6667C5.99967 12.5127 6.00749 12.3601 6.02213 12.2096C6.05791 11.8433 6.38427 11.5753 6.75065 11.611C7.11673 11.6469 7.38465 11.9724 7.34928 12.3385C7.33881 12.4461 7.33366 12.5559 7.33366 12.6667C7.33366 12.7774 7.33881 12.8872 7.34928 12.9948C7.38465 13.3609 7.11673 13.6865 6.75065 13.7223C6.38427 13.758 6.05791 13.49 6.02213 13.1237C6.00749 12.9732 5.99967 12.8206 5.99967 12.6667ZM13.9997 12.6667C13.9997 12.5559 13.9945 12.4461 13.984 12.3385C13.9487 11.9724 14.2166 11.6469 14.5827 11.611C14.9491 11.5753 15.2754 11.8433 15.3112 12.2096C15.3258 12.3601 15.3337 12.5127 15.3337 12.6667C15.3337 12.8206 15.3258 12.9732 15.3112 13.1237C15.2754 13.49 14.9491 13.758 14.5827 13.7223C14.2166 13.6865 13.9487 13.3609 13.984 12.9948C13.9945 12.8872 13.9997 12.7774 13.9997 12.6667ZM7.70573 9.05923C7.99017 8.82554 8.41045 8.86666 8.6442 9.15103C8.87791 9.43547 8.83678 9.85575 8.55241 10.0895C8.38353 10.2283 8.22827 10.3835 8.08952 10.5524C7.85576 10.8368 7.43548 10.8779 7.15104 10.6442C6.86667 10.4104 6.82555 9.99016 7.05924 9.70572C7.25312 9.46975 7.46975 9.25311 7.70573 9.05923ZM12.6891 9.15103C12.9229 8.86666 13.3432 8.82554 13.6276 9.05923C13.8636 9.25311 14.0802 9.46975 14.2741 9.70572C14.5078 9.99016 14.4667 10.4104 14.1823 10.6442C13.8978 10.8779 13.4776 10.8368 13.2438 10.5524C13.1051 10.3835 12.9498 10.2283 12.7809 10.0895C12.4966 9.85575 12.4554 9.43547 12.6891 9.15103ZM10.6667 7.99966C10.8206 7.99966 10.9732 8.00748 11.1237 8.02213C11.49 8.05791 11.758 8.38426 11.7223 8.75064C11.6865 9.11672 11.3609 9.38464 10.9948 9.34927C10.8872 9.3388 10.7774 9.33365 10.6667 9.33365C10.5559 9.33365 10.4462 9.3388 10.3385 9.34927C9.97242 9.38464 9.64686 9.11672 9.611 8.75064C9.57534 8.38426 9.84329 8.05791 10.2096 8.02213C10.3601 8.00748 10.5127 7.99966 10.6667 7.99966Z" fill="#F7D035"/>
</g>
</g>
<defs>
<clipPath id="clip0_5138_628">
<rect width="28" height="20" fill="white"/>
</clipPath>
</defs>
</svg>

<svg xmlns="http://www.w3.org/2000/svg" width="28" height="20" fill="none" viewBox="0 0 28 20"><g clip-path="url(#a)"><rect width="28" height="20" fill="#fff" rx="2"/><mask id="b" width="28" height="20" x="0" y="0" maskUnits="userSpaceOnUse" style="mask-type:luminance"><rect width="28" height="20" fill="#fff" rx="2"/></mask><g mask="url(#b)"><path fill="#0c49ae" fill-rule="evenodd" d="M0 10.667h28V0H0zM0 20h28v-5.333H0z" clip-rule="evenodd"/><path fill="#fff" fill-rule="evenodd" d="M0 14.6667h28v-4H0z" clip-rule="evenodd"/><path fill="#cd232e" fill-rule="evenodd" d="M0 13.3333h28V12H0z" clip-rule="evenodd"/><path fill="#f7d035" d="M10.9948 15.984a.6667.6667 0 0 1 .1289 1.3272 4.7 4.7 0 0 1-.457.0224c-.154 0-.3066-.0078-.4571-.0224a.6667.6667 0 0 1 .1289-1.3272c.1077.0105.2174.0157.3282.0157s.2205-.0052.3281-.0157M7.151 14.6891a.667.667 0 0 1 .9385.0918c.1388.1689.294.3242.463.4629a.667.667 0 0 1 .0917.9385.667.667 0 0 1-.9385.0918 4.7 4.7 0 0 1-.6465-.6465.667.667 0 0 1 .0918-.9385m6.0928.0918a.667.667 0 0 1 .9385-.0918.667.667 0 0 1 .0918.9385 4.7 4.7 0 0 1-.6465.6465.667.667 0 0 1-.9385-.0918.667.667 0 0 1 .0918-.9385 3.35 3.35 0 0 0 .4629-.4629m-7.2441-2.1142c0-.154.0078-.3066.0224-.4571a.6667.6667 0 0 1 1.3272.1289 3.4 3.4 0 0 0-.0156.3282c0 .1107.0051.2205.0156.3281a.6666.6666 0 0 1-.5987.7275.667.667 0 0 1-.7285-.5986 4.7 4.7 0 0 1-.0224-.457m8 0c0-.1108-.0052-.2206-.0157-.3282a.6668.6668 0 0 1 1.3272-.1289c.0146.1505.0225.3031.0225.4571a4.7 4.7 0 0 1-.0225.457.6667.6667 0 0 1-1.3272-.1289 3.4 3.4 0 0 0 .0157-.3281m-6.294-3.6075a.667.667 0 0 1 .9385.0918.667.667 0 0 1-.0918.9385 3.36 3.36 0 0 0-.4629.4629.667.667 0 0 1-.9385.0918.667.667 0 0 1-.0918-.9385 4.7 4.7 0 0 1 .6465-.6465m4.9834.0918a.667.667 0 0 1 .9385-.0918c.236.194.4526.4105.6465.6465a.667.667 0 0 1-.0918.9385.667.667 0 0 1-.9385-.0918 3.36 3.36 0 0 0-.4629-.4629.667.667 0 0 1-.0918-.9385m-2.0224-1.1513c.1539 0 .3065.0078.457.0224a.667.667 0 0 1 .5986.7285.6666.6666 0 0 1-.7275.5987 3.4 3.4 0 0 0-.3281-.0156 3.4 3.4 0 0 0-.3282.0156.6667.6667 0 0 1-.1289-1.3272 4.7 4.7 0 0 1 .4571-.0224"/></g></g><defs><clipPath id="a"><path fill="#fff" d="M0 0h28v20H0z"/></clipPath></defs></svg>
